icons/lines/magic-star.svg

<svg xmlns="http://www.w3.org/2000/svg" width="24" height="24" viewBox="0 0 24 24" fill="none" stroke="currentColor" stroke-width="2" stroke-linecap="round" stroke-linejoin="round" >
  <path d="M17.2902 4.13999L17.2202 7.92997C17.2102 8.44997 17.5403 9.13999 17.9603 9.44999L20.4403 11.33C22.0303 12.53 21.7703 14 19.8703 14.6L16.6403 15.61C16.1003 15.78 15.5303 16.37 15.3903 16.92L14.6203 19.86C14.0103 22.18 12.4902 22.41 11.2302 20.37L9.47024 17.52C9.15024 17 8.39024 16.61 7.79024 16.64L4.45028 16.81C2.06028 16.93 1.38027 15.55 2.94027 13.73L4.92025 11.43C5.29025 11 5.46024 10.2 5.29024 9.65998L4.28029 6.42997C3.69029 4.52997 4.75028 3.47999 6.64028 4.09999L9.59029 5.06999C10.0903 5.22999 10.8403 5.11998 11.2603 4.80998L14.3403 2.58998C16.0003 1.38998 17.3302 2.08999 17.2902 4.13999Z"/>
  <path d="M21.9099 22L18.8799 18.97"/>
  </svg>

<svg xmlns="http://www.w3.org/2000/svg" width="24" height="24" viewBox="0 0 24 24" fill="none" stroke="currentColor" stroke-width="2" stroke-linecap="round" stroke-linejoin="round">
  <path d="M17.22 7.93c-.01.52.32 1.21.74 1.52l2.48 1.88c1.59 1.2 1.33 2.67-.57 3.27l-3.23 1.01c-.54.17-1.11.76-1.25 1.31l-.77 2.94c-.61 2.32-2.13 2.55-3.39.51l-1.76-2.85c-.32-.52-1.08-.91-1.68-.88l-3.34.17c-2.39.12-3.07-1.26-1.51-3.08l1.98-2.3c.37-.43.54-1.23.37-1.77L4.28 6.43c-.59-1.9.47-2.95 2.36-2.33l2.95.97c.5.16 1.25.05 1.67-.26l3.08-2.22c1.66-1.2 2.99-.5 2.95 1.55z" />
  <path d="m21.91 22-3.03-3.03" />
</svg>
